app/assets/images/sephora_style_guide/svgs/order_status/invalidated.svg

<svg version="1.1" xmlns="http://www.w3.org/2000/svg" viewBox="0 0 100 100">
<path d="M55.5555556,57.1911111 C55.5555556,60.2577778 53.0711111,62.7466667 50,62.7466667 C46.9333333,62.7466667 44.4444444,60.2577778 44.4444444,57.1911111 L44.4444444,25.28 C44.4444444,22.2088889 46.9333333,19.7244444 50,19.7244444 C53.0711111,19.7244444 55.5555556,22.2088889 55.5555556,25.28 L55.5555556,57.1911111 Z M53.8977778,78.6711111 C52.8933333,79.6755556 51.4533333,80.2488889 50.0133333,80.2488889 C48.5066667,80.2488889 47.0711111,79.6755556 46.0622222,78.6711111 C45.0577778,77.5911111 44.4133333,76.16 44.4133333,74.72 C44.4133333,73.28 45.0577778,71.84 46.0622222,70.7644444 C48.1466667,68.7511111 51.8133333,68.68 53.8977778,70.8355556 C54.9822222,71.7688889 55.5555556,73.2088889 55.5555556,74.72 C55.5555556,76.16 54.9822222,77.5911111 53.8977778,78.6711111 Z M50,10 C27.9066667,10 10,27.92 10,50 C10,72.08 27.9066667,90 50,90 C72.0933333,90 90,72.08 90,50 C90,27.92 72.0933333,10 50,10 Z" id="warning"></path>
</svg>

<svg xmlns="http://www.w3.org/2000/svg" viewBox="0 0 100 100"><path d="M55.556 57.191a5.555 5.555 0 11-11.112 0V25.28A5.555 5.555 0 0150 19.724a5.552 5.552 0 015.556 5.556v31.911zm-1.658 21.48c-1.005 1.005-2.445 1.578-3.885 1.578-1.506 0-2.942-.573-3.95-1.578-1.005-1.08-1.65-2.511-1.65-3.951s.645-2.88 1.65-3.956c2.084-2.013 5.75-2.084 7.835.072 1.084.933 1.658 2.373 1.658 3.884 0 1.44-.574 2.871-1.658 3.951zM50 10c-22.093 0-40 17.92-40 40s17.907 40 40 40 40-17.92 40-40-17.907-40-40-40z"/></svg>
